X:1
T:Title
%%score ( 1 2 ) { 3 | 4 }
L:1/8
Q:1/4=105
M:4/4
K:Ab
V:1 treble nm="Grand Piano, Soprano"
V:2 treble 
V:3 treble nm="Choir Pad, Serve the Lord in Youth"
V:4 bass 
V:1
 [Ac]2 [A_c]2 [A=c]2 [Ad][Ac] | [GB]2 [_G=A]2 [=GB]4 | [GB]2 [_G=A]2 [=GB]2 [Gc][GB] | %3
w: By~Joseph~Lincoln~Hall,~from~Jules~Granier * * * *|||
 [EA]2 [EG]2 [EA]4 | [Ec]2 [=D_c]2 [E=c]2 [F=d]>[Ec] | [=DB]2 [DF]2 [DB]4 | %6
w: |||
 [EG]2 [EA]2 [EF]2 [=DF]2 | E6 E2 | [GB]3 [_G=A] [=GB]2 [_Ac]2 | [Gd]6 z2 |[M:12/8] E3 F3 G3 A3 | %11
w: |||||
 A3 .G3 .G6 | F3 G3 A3 B3 | B3 .A3 A6 | E3 c6 B3 | B3 A3 G3 F3 | E6- E2- E/ z/ z3 | %17
w: ||||||
 A-[=DA-][DA-] [DA-][DA-][DA] [DF]3 z2 B | B-[EGB-][EGB-] [EGB-][EGB-][EGB] [EG]3 [EA]3 | %19
w: ||
 [EB]3 [Fc]3 [Ad]3 [Ae]3 | [FAf]6- [FAf]2- [FAf]/ z/ z2 A | [Ac]3- [Ac]2 [Ac] [Ge]3- [Ge]2 [Ge] | %22
w: |||
 [EA]12 |] %23
w: |
V:2
 x8 | x8 | x8 | x8 | x8 | x8 | x8 | x8 | x8 | x8 | %10
[M:12/8] CCC [CE][CE][CE] [CE][CE][CE] [CE][CE][CE] | %11
 [DE][DE][DE] [DE][DE][DEF] [DE][DE][DE] [DE][DE][DE] | %12
 [B,D][B,D][B,D] [B,D][B,D][B,D] [B,DE][B,DE][B,DE] [B,DE][B,DE][B,DE] | %13
 [CE][CE][CE] [CE][CE][CEG] [CE][CE][CE] [CE][CE][CE] | %14
 CCC [CE][CE][CE] [C=E][CE][CE] [CE][CE][CE] | %15
 [CF][CF][CF] [CF][CF][CF] [B,D][B,D][B,D] [B,D][B,D][B,D] | CCC CCC C3 z2 A | .=D3 z3 z6 | %18
 .[EG]3 z3 z6 | x12 | x12 | x12 | x12 |] %23
V:3
 E2 =D2 E2 FE | D2 C2 C4 | D2 C2 D2 ED | C2[K:bass] B,2 C4 | A,2 A,2 =A,2 A,>A, | A,2 A,2 A,4 | %6
 B,2 C2 B,2 A,2 | G,6 E,2 | D3 D D2 C2 | B,6 z2 |[M:12/8][K:bass] A,6- A,3 E,3 | B,6- B,3 E,3 | %12
 E,6 F,3 G,3 | A,6- A,3 E,3 | C,3 A,,3 G,,6 | F,,6 D,3 B,,3 | E,3 C,3 A,,3 z2 A, | %17
 A,A,A, A,A,A, A,3 z2 B, | DDD DDD D3 C3 | B,3 A,3 D3 C3 | D6- D2- D/ z/ z2 A, | %21
 E3- E2 E D3- D2 D | C12 |] %23
V:4
 A,2 A,2 A,2 A,A, | E,2 E,2 E,4 | E,2 E,2 E,2 E,E, | A,2 A,2 A,4 | z4 F,2 F,>F, | B,,2 B,,2 B,,4 | %6
 E,2 A,,2 B,,2 B,,2 | E,6 z2 | E,3 E, E,2 E,2 | E,6 z2 |[M:12/8] A,,6- A,,3 E,,3 | %11
 B,,6- B,,3 E,,3 | E,,6 F,,3 G,,3 | A,,6- A,,3 E,,3 | C,,3 A,,,3 G,,,6 | D,,,6 D,,3 B,,,3 | %16
 E,,3 C,,3 A,,,3 z3 | [B,,F,][B,,F,][B,,F,] [B,,F,][B,,F,][B,,F,] [B,,F,]3 z3 | %18
 [E,B,][E,B,][E,B,] [E,B,][E,B,][E,B,] [E,B,]3 A,3 | G,3 G,3 F,3 E,3 | D,6- D,2- D,/ z/ z3 | %21
 E,3- E,2 E, E,3- E,2 E, | A,,12 |] %23

